assets/img/braze_icons/moon-star.svg

<svg fill="none" height="24" viewBox="0 0 24 24" width="24" xmlns="http://www.w3.org/2000/svg"><g fill="#801ed7"><path clip-rule="evenodd" d="m18 1c.3788 0 .725.214.8944.55279l.6178 1.23558c.2825.56497.3686.72755.4732.86324.1049.1361.2269.25811.363.36301.1357.1046.2983.19068.8632.47316l1.2356.61779c.3388.16939.5528.51566.5528.89443s-.214.72504-.5528.89443l-1.2356.61779c-.5649.28248-.7275.36856-.8632.47316-.1361.1049-.2581.22691-.363.36301-.1046.13569-.1907.29827-.4732.86324l-.6178 1.23557c-.1694.3388-.5156.5528-.8944.5528s-.725-.214-.8944-.5528l-.6178-1.23557c-.2825-.56497-.3686-.72755-.4732-.86324-.1049-.1361-.2269-.25811-.363-.36301-.1357-.1046-.2983-.19068-.8632-.47316l-1.2356-.61779c-.3388-.16939-.5528-.51566-.5528-.89443s.214-.72504.5528-.89443l1.2356-.61779c.5649-.28248.7275-.36856.8632-.47316.1361-.1049.2581-.22691.363-.36301.1046-.13569.1907-.29827.4732-.86324l.6178-1.23558c.1694-.33879.5156-.55279.8944-.55279zm0 3.2279c-.1284.24245-.2523.45139-.4014.64472-.2098.27219-.4538.51621-.726.72603-.1933.14902-.4022.27295-.6447.40135.2425.1284.4514.25233.6447.40135.2722.20982.5162.45384.726.72603.1491.19333.273.40227.4014.64472.1284-.24245.2523-.45139.4014-.64472.2098-.27219.4538-.51621.726-.72603.1933-.14902.4022-.27295.6447-.40135-.2425-.1284-.4514-.25233-.6447-.40135-.2722-.20982-.5162-.45384-.726-.72603-.1491-.19333-.273-.40227-.4014-.64472z" fill-rule="evenodd"/><path d="m11.1067 3.86882c.4094-.23337.6004-.72095.4583-1.17031-.1421-.44935-.5787-.73849-1.0479-.69401-5.34021.50634-9.5171 5.00183-9.5171 10.4741 0 5.8108 4.71064 10.5214 10.5215 10.5214 5.472 0 9.9673-4.1764 10.474-9.5162.0446-.4692-.2446-.9058-.6939-1.0479s-.9369.0487-1.1703.4582c-1.1404 2.0004-3.2904 3.3454-5.7534 3.3454-3.6545 0-6.61715-2.9626-6.61715-6.61713 0-2.46309 1.34527-4.61322 3.34595-5.75355z"/></g></svg>

<svg width="24" height="24" viewBox="0 0 24 24" fill="none" xmlns="http://www.w3.org/2000/svg">
<path fill-rule="evenodd" clip-rule="evenodd" d="M18 1C18.3788 1 18.725 1.214 18.8944 1.55279L19.5122 2.78837C19.7947 3.35334 19.8808 3.51592 19.9854 3.65161C20.0903 3.78771 20.2123 3.90972 20.3484 4.01462C20.4841 4.11922 20.6467 4.2053 21.2116 4.48778L22.4472 5.10557C22.786 5.27496 23 5.62123 23 6C23 6.37877 22.786 6.72504 22.4472 6.89443L21.2116 7.51222C20.6467 7.7947 20.4841 7.88078 20.3484 7.98538C20.2123 8.09028 20.0903 8.21229 19.9854 8.34839C19.8808 8.48408 19.7947 8.64666 19.5122 9.21163L18.8944 10.4472C18.725 10.786 18.3788 11 18 11C17.6212 11 17.275 10.786 17.1056 10.4472L16.4878 9.21163C16.2053 8.64666 16.1192 8.48408 16.0146 8.34839C15.9097 8.21229 15.7877 8.09028 15.6516 7.98538C15.5159 7.88078 15.3533 7.7947 14.7884 7.51222L13.5528 6.89443C13.214 6.72504 13 6.37877 13 6C13 5.62123 13.214 5.27496 13.5528 5.10557L14.7884 4.48778C15.3533 4.2053 15.5159 4.11922 15.6516 4.01462C15.7877 3.90972 15.9097 3.78771 16.0146 3.65161C16.1192 3.51592 16.2053 3.35334 16.4878 2.78837L17.1056 1.55279C17.275 1.214 17.6212 1 18 1ZM18 4.2279C17.8716 4.47035 17.7477 4.67929 17.5986 4.87262C17.3888 5.14481 17.1448 5.38883 16.8726 5.59865C16.6793 5.74767 16.4704 5.8716 16.2279 6C16.4704 6.1284 16.6793 6.25233 16.8726 6.40135C17.1448 6.61117 17.3888 6.85519 17.5986 7.12738C17.7477 7.32071 17.8716 7.52965 18 7.7721C18.1284 7.52965 18.2523 7.32071 18.4014 7.12738C18.6112 6.85519 18.8552 6.61117 19.1274 6.40135C19.3207 6.25233 19.5296 6.1284 19.7721 6C19.5296 5.8716 19.3207 5.74767 19.1274 5.59865C18.8552 5.38883 18.6112 5.14481 18.4014 4.87262C18.2523 4.67929 18.1284 4.47035 18 4.2279Z" fill="#801ED7"/>
<path d="M11.1067 3.86882C11.5161 3.63545 11.7071 3.14787 11.565 2.69851C11.4229 2.24916 10.9863 1.96002 10.5171 2.0045C5.17689 2.51084 1 7.00633 1 12.4786C1 18.2894 5.71064 23 11.5215 23C16.9935 23 21.4888 18.8236 21.9955 13.4838C22.0401 13.0146 21.7509 12.578 21.3016 12.4359C20.8523 12.2938 20.3647 12.4846 20.1313 12.8941C18.9909 14.8945 16.8409 16.2395 14.3779 16.2395C10.7234 16.2395 7.76075 13.2769 7.76075 9.62237C7.76075 7.15928 9.10602 5.00915 11.1067 3.86882Z" fill="#801ED7"/>
</svg>
